public/images/icons/src/Tweet.svg

<?xml version="1.0" encoding="utf-8"?>
<!-- Generated by IcoMoon.io -->
<!DOCTYPE svg PUBLIC "-//W3C//DTD SVG 1.1//EN" "http://www.w3.org/Graphics/SVG/1.1/DTD/svg11.dtd">
<svg version="1.1" xmlns="http://www.w3.org/2000/svg" xmlns:xlink="http://www.w3.org/1999/xlink" width="32" height="32" viewBox="0 0 32 32">
<path fill="#444" d="M7.015 25.869c1.174 0.246 2.426 0.369 3.743 0.369 4.653 0 8.54-1.801 11.321-4.956 2.515-2.855 3.938-6.658 3.938-10.303 0-0.058-0-0.104-0.003-0.173-0.003-0.106-0.009-0.221-0.018-0.346-0.026-0.341-0.074-0.696-0.148-1.051-0.195-0.927-0.541-1.691-1.034-2.187-0.903-0.93-2.099-1.46-3.358-1.46-2.509 0-4.528 2.019-4.528 4.528 0 0.419 0.032 0.768 0.098 1.058l0.383 1.658-1.7-0.092c-4.361-0.237-8.359-1.958-11.397-4.831-0.012 0.131-0.018 0.265-0.018 0.402 0 1.526 0.762 2.919 2.022 3.759l3.749 2.5-4.503-0.155c-0.304-0.010-0.605-0.040-0.902-0.089 0.586 1.328 1.77 2.319 3.228 2.607l5.417 1.070-5.335 1.423c-0.247 0.066-0.501 0.118-0.759 0.157 0.817 0.888 1.981 1.444 3.235 1.461l3.574 0.046-2.791 2.233c-1.302 1.042-2.727 1.852-4.215 2.372zM27.297 10.98c0 7.679-5.841 16.539-16.539 16.539-3.281 0-6.366-0.722-8.926-2.363 0.459 0.066 0.919 0.098 1.378 0.098 2.724 0 5.25-1.181 7.219-2.756-2.527-0.033-4.693-1.739-5.414-4.036 0.361 0.066 0.722 0.099 1.083 0.099 0.525 0 1.050-0.066 1.542-0.197-2.658-0.525-4.66-2.888-4.66-5.775 0.788 0.427 1.674 0.689 2.625 0.722-1.575-1.050-2.592-2.822-2.592-4.824 0-1.083 0.295-1.969 0.788-2.822 2.888 3.511 7.154 5.71 11.977 5.972-0.098-0.427-0.131-0.886-0.131-1.345 0-3.216 2.592-5.808 5.808-5.808 1.668 0 3.173 0.717 4.255 1.827 1.293-0.265 2.521-0.753 3.622-1.4-0.423 1.333-1.329 2.474-2.527 3.197 0.002 0.005 0.004 0.010 0.005 0.015 1.167-0.134 2.271-0.46 3.309-0.915-0.781 1.172-1.757 2.183-2.862 3 0.038 0.41 0.038 0.698 0.038 0.774z"></path>
</svg>

<?xml version="1.0" encoding="utf-8"?> <!-- Generator: IcoMoon.io --> <!DOCTYPE svg PUBLIC "-//W3C//DTD SVG 1.1//EN" "http://www.w3.org/Graphics/SVG/1.1/DTD/svg11.dtd"> <svg width="32" height="32" viewBox="0 0 32 32" version="1.1" xmlns="http://www.w3.org/2000/svg" xmlns:xlink="http://www.w3.org/1999/xlink" xmlns:sketch="http://www.bohemiancoding.com/sketch/ns" fill="#000000"> <g><path d="M 7.015,25.869 C 8.189,26.116 9.441,26.239 10.758,26.239 C 15.412,26.239 19.299,24.438 22.079,21.283 C 24.594,18.428 26.017,14.625 26.017,10.98 C 26.017,10.922 26.017,10.876 26.015,10.807 C 26.011,10.701 26.006,10.585 25.996,10.461 C 25.97,10.12 25.922,9.765 25.848,9.41 C 25.652,8.483 25.307,7.719 24.814,7.223 C 23.911,6.293 22.716,5.763 21.456,5.763 C 18.947,5.763 16.928,7.782 16.928,10.291 C 16.928,10.71 16.96,11.059 17.026,11.348 L 17.409,13.007 L 15.709,12.914 C 11.348,12.677 7.35,10.956 4.312,8.084 C 4.3,8.215 4.294,8.349 4.294,8.486 C 4.294,10.012 5.056,11.405 6.316,12.245 L 10.066,14.744 L 5.562,14.589 C 5.258,14.579 4.957,14.549 4.661,14.5 C 5.247,15.829 6.431,16.82 7.889,17.108 L 13.306,18.178 L 7.971,19.6 C 7.723,19.666 7.47,19.719 7.212,19.757 C 8.029,20.645 9.193,21.202 10.447,21.218 L 14.021,21.265 L 11.23,23.498 C 9.927,24.539 8.503,25.349 7.015,25.869 Z M 27.297,10.98 C 27.297,18.659 21.456,27.519 10.758,27.519 C 7.477,27.519 4.392,26.797 1.833,25.156 C 2.292,25.222 2.752,25.254 3.211,25.254 C 5.935,25.254 8.461,24.073 10.43,22.498 C 7.903,22.465 5.738,20.759 5.016,18.462 C 5.377,18.527 5.738,18.56 6.099,18.56 C 6.624,18.56 7.149,18.495 7.641,18.363 C 4.983,17.838 2.981,15.476 2.981,12.588 C 3.769,13.015 4.655,13.277 5.606,13.31 C 4.031,12.26 3.014,10.488 3.014,8.486 C 3.014,7.403 3.309,6.517 3.802,5.664 C 6.689,9.175 10.955,11.374 15.779,11.636 C 15.681,11.21 15.648,10.75 15.648,10.291 C 15.648,7.075 18.24,4.483 21.456,4.483 C 23.124,4.483 24.629,5.2 25.711,6.309 C 27.004,6.044 28.233,5.557 29.333,4.909 C 28.91,6.243 28.004,7.383 26.806,8.106 C 26.808,8.111 26.809,8.116 26.811,8.121 C 27.979,7.987 29.082,7.661 30.121,7.206 C 29.339,8.378 28.364,9.389 27.259,10.206 C 27.297,10.616 27.297,10.904 27.297,10.98 Z M 27.297,10.98"></path></g></svg>
